X:96
T:Paddy Lynn's Delight
R:Reel
D:Paddy Carty & Conor Tully (Session Tape)
Z:Adrian Scahill
M:4/4
L:1/8
K:F
dGGA BAGF|DFF2 GFDF|dGGA BAGA|B3c dggf|\
dGGA BAGF|DFF2 GFDF|GABd gfdB|GBAF G4:||\
B2fB gBfB|B2df gdfd|B2fB gBfd|c2dc BGGA|\
B2fB gBfB|B2df gfd2|dbag fdcA|GBAF G4:||
